X:291
M:C|
L:1/8
K:D
f|defg abaf|gefd eBBe|defg abaf|geag fdde|defg abaf|gefd eBBe|
dfeg afge|fbef dDD||

